X: 1
T: da Smugglers
S: Barbara McOwen 5/84
M: 6/8
L: 1/8
K: G
"D7"d3 \
| "G"BAB G2A \
| B2e "C"edB \
| "D7"d3 d3 \
| "G"BAB G2A \
| "Em"B2e "C"edB \
| "D7"A3 A3 \
|| "G"BAB G2A \
| B2e "C"edB |
| "D7"d3 d3 \
| "G"BAB G2A \
| "Em"B2B "C"BAG \
| "D7"A3 "G"GBd \
|[| "C"g2e "Bm"f2d \
| "Em"g2e "D"faf \
| "D7"d3 d2f \
| "C"g2e "Bm"f2a |
| "Em"g2e "C"edB \
| "D7"A3 A2f \
|| "C"g2e "Bm"f2d \
| "Em"g2e "D"faf \
| "D7"d3 d2c \
| "G"BAB G2A \
| "Em"B2B "C"BAG \
| "D7"A3 "G"G2 |]
